X:1
T:Title
%%score { ( 1 4 ) | ( 2 3 ) }
L:1/8
Q:1/4=95
M:6/8
K:Bb
V:1 treble nm="Grand Piano"
V:4 treble 
V:2 bass 
V:3 bass 
V:1
 [DF]3 [B,D][DF][DB] | [Fd]3 [DB]3 | [DF]3 [F,B,D][DF][B,DB] | A6 | c3 c=Bc | d3 c3 | %6
w: John~Abnett * * *||||||
 [DB]3 [GB][FA][EG] | [DF]6 | [DF]3 [B,D][DF][DB] | [Fd]3 [DB]3 | [DF]3 [B,D][DF][DB] | [EG]6 | %12
w: ||||||
 [GB]3 [GB][FA][EG] | [DF]3 [DB]3 | d3 cGA | [DB]6 | [Fd]3 [Fd]_d=d | [Ge]3 [Fd]3 | [Bd]3 [Fd]dd | %19
w: |||||||
 [Ae]6 | [ce]3 [ce]de | [df]3 [Bd]3 | [c=e]3 [Ge]ee | [Af]3 [Ge]3 | [Fd]3 [Fd]_d=d | [Ge]3 [Fd]3 | %26
w: |||||||
 [Bd]3 [Fd]dd | [Ge]6 | [Be]3 [Be]ee | [Fd]3 [df]3 | [ce]3 [Ae]ee | [Bd]6 |] %32
w: ||||||
V:2
 [B,,B,]3 [B,,F,][B,,B,][B,,B,] | [B,,B,]3 [B,,B,]3 | [B,,B,]3 z B,B,, | [F,CE]6 | %4
 [F,A,E]3 [F,A,E][F,_A,D][F,=A,E] | [F,A,F]3 [F,A,E]3 | [B,,F,]3 [B,,B,][B,,B,][B,,B,] | [B,,B,]6 | %8
 [B,,B,]3 [B,,F,][B,,B,][B,,F,] | [B,,B,]3 [B,,B,]3 | [B,,B,]3 [B,,F,][B,,B,][B,,B,] | [E,B,]6 | %12
 [E,E]3 [E,E][E,E][E,B,] | [B,,B,]3 [B,,B,]3 | [F,B,F]3 [F,A,E][F,CE][F,CE] | [B,,B,]6 | %16
 [B,,B,]3 z[K:treble] =EF | [B,,B,]3 [F,B,D]3 | [B,,B,]3 z[K:treble] GB | [F,,F,]3 z3 | %20
 [F,,F,]3 z[K:treble] =Bc | [B,,B,]3 [F,B,]3 | z3[K:treble] [G,C=E]3 | [F,,F,]3 [F,C]3 | %24
 [B,,B,]3 z =EF | [B,,B,]3 [F,B,D]3 | [B,,B,]3 z[K:treble] GB | [E,,E,]3 z3 | %28
 z3[K:treble] [G,B,E]3 | [B,,B,]3 [F,B,D]3 | [F,,F,]3 z[K:treble] GA | [B,,F,B,]6 |] %32
V:3
 x6 | x6 | z3 .B,,3 | x6 | x6 | x6 | x6 | x6 | x6 | x6 | x6 | x6 | x6 | x6 | x6 | x6 | %16
 z3 [F,B,D]3[K:treble] | x6 | z3 [F,B,D]3[K:treble] | x6 | z3 [F,C]3[K:treble] | x6 | %22
 [C,,C,]3[K:treble] z AB | x6 | z3 [F,B,D]3 | x6 | z3 [F,B,D]3[K:treble] | x6 | %28
 [E,,E,]3[K:treble] z AG | x6 | z3 [F,C]3[K:treble] | x6 |] %32
V:4
 x6 | x6 | x6 | x6 | x6 | x6 | x6 | x6 | x6 | x6 | x6 | x6 | x6 | x6 | x6 | x6 | x6 | x6 | x6 | %19
 z3 [F,C]3 | x6 | x6 | x6 | x6 | x6 | x6 | x6 | z3 [B,E]3 | x6 | x6 | x6 | x6 |] %32

